static/icons/mail.svg

<svg xmlns="http://www.w3.org/2000/svg" width="24" height="24" viewBox="0 0 24 24">
  <path fill-rule="evenodd" d="M12,11.6346154 L18.4230769,7.61538462 L5.57692308,7.61538462 L12,11.6346154 Z M18.4230769,17.2307692 L18.4230769,9.23076923 L12,13.2115385 L5.57692308,9.23076923 L5.57692308,17.2307692 L18.4230769,17.2307692 Z M18.4230769,6 C18.8589765,6 19.2307677,6.16025481 19.5384615,6.48076923 C19.8461554,6.80128365 20,7.179485 20,7.61538462 L20,17.2307692 C20,17.6666688 19.8461554,18.0448702 19.5384615,18.3653846 C19.2307677,18.685899 18.8589765,18.8461538 18.4230769,18.8461538 L5.57692308,18.8461538 C5.14102346,18.8461538 4.76923231,18.685899 4.46153846,18.3653846 C4.15384462,18.0448702 4,17.6666688 4,17.2307692 L4,7.61538462 C4,7.179485 4.15384462,6.80128365 4.46153846,6.48076923 C4.76923231,6.16025481 5.14102346,6 5.57692308,6 L18.4230769,6 Z"/>
</svg>

<svg xmlns="http://www.w3.org/2000/svg" width="24" height="24">
    <path fill-rule="evenodd" d="M12 11.635l6.423-4.02H5.577L12 11.635zm6.423 5.596v-8L12 13.21 5.577 9.23v8h12.846zm0-11.231c.436 0 .808.16 1.115.48.308.321.462.7.462 1.135v9.616c0 .436-.154.814-.462 1.134a1.49 1.49 0 0 1-1.115.481H5.577a1.49 1.49 0 0 1-1.115-.48A1.584 1.584 0 0 1 4 17.23V7.615c0-.436.154-.814.462-1.134A1.485 1.485 0 0 1 5.577 6h12.846z"/>
</svg>
